public/avatar/body/228.svg

<svg xmlns:xlink="http://www.w3.org/1999/xlink" height="82" width="84.85" xmlns="http://www.w3.org/2000/svg"><g transform="translate(37.4 42.25)"><use height="41.95" transform="matrix(-1 0 0 1 1.6 -14.95)" width="34.15" xlink:href="#a"/><use height="41.95" transform="translate(8.55 -14.95)" width="34.15" xlink:href="#a"/><use height="38" transform="translate(-11.95 -17.45)" width="32.05" xlink:href="#b"/><use height="38.95" transform="translate(-12.45 -17.95)" width="33.05" xlink:href="#c"/></g><defs><use height="41.95" width="34.15" xlink:href="#d" id="j"/><use height="40.15" width="31.45" xlink:href="#e" id="k"/><use height="37.9" width="25.4" xlink:href="#f" id="l"/><use height="36.15" width="27.9" xlink:href="#g" id="m"/><use height="38" width="32.05" xlink:href="#h" id="b"/><use height="38.95" width="33.05" xlink:href="#i" id="c"/><path d="M10-14.6q-1.15-2.1-2.7-3.65L5.9-19.4q-6.75-3.15-13.85.15-3.55 1.65-5.7 3.9-1.55 3.1-2.75 8.4l-.65 1.1q4.45 3.4 2.3 6.55-1.3 4.15 2.15 4.05l3.65-1q1.25.5 2.7 3.5l1.2 2.9Q-3.4 15.2-1.6 15.5l1.55-.75q1.05 3.6 3.5 4l2.2-.35q2.55 2.8 4.5 2.6l1.5-.7q5.05.85 5.45-1.2l-.6-2.25q-5.75-4.5-6.25-10.3-.15-1.8.25-3.55l.4-1.35q2.65-9.5-.9-16.25" fill="#343a45" fill-rule="evenodd" transform="translate(17.05 20.95)" id="d"/><path d="M-7.55-18.5q-3.05 1.45-4.8 3.25l-3.35 8.5q4.05 3.05 2.15 7.8-2.35 3.8 3.25 1.8l2.25.25Q-6.4 4.2-5 6.95q.75 1.4 1.15 2.55.5 4.65 2.35 4.9l1.75-.7q.85 3.45 3.35 3.8l2.3-.3q3.55 4.3 5.15 2.2 4.5.8 4.7-.85l-.8-1.85q-3.4-3.1-5-5.6l-.9-1.95q-.7-2.1.25-7.2l1.1-4.6q.3-8.05-2.75-13.05-.95-1.5-2.1-2.6l-1-.75q-6.05-2.2-12.1.55" fill="#fff" fill-rule="evenodd" transform="translate(15.7 20.05)" id="e"/><path d="M27.35 7.4q2.15 4.15 3.55 8.75 1.45 4.7 1.15 9.5-.35 4.95-4.2 8.1-3.8 3.2-8.75 4.05l-2.6.2q-3.6 0-7.05-1.15-4.65-1.6-7.1-5.5Q-.2 27.4.05 23q.2-4.4 2-9.3Q3.85 8.75 7 5.05 10.1 1.3 14.7.1l1.8-.1q1.9.05 3.7.8 4.75 2.05 7.15 6.6" fill="#fff" fill-rule="evenodd" transform="translate(-.05)" id="h"/><path d="M27.35 7.4Q24.95 2.85 20.2.8 17.55-.3 14.7.1 10.1 1.3 7 5.05q-3.15 3.7-4.95 8.65-1.8 4.9-2 9.3-.25 4.4 2.3 8.35 2.45 3.9 7.1 5.5 4.65 1.55 9.65.95 4.95-.85 8.75-4.05 3.85-3.15 4.2-8.1.3-4.8-1.15-9.5-1.4-4.6-3.55-8.75Z" fill="none" stroke="#1c0a1b" stroke-linecap="round" stroke-linejoin="round" transform="translate(.45 .5)" id="i"/><g id="a" transform="translate(17.05 20.95)"><use height="41.95" transform="translate(-17.05 -20.95)" width="34.15" xlink:href="#j"/><use height="40.15" transform="translate(-15.5 -20.05)" width="31.45" xlink:href="#k"/><use height="37.9" transform="translate(-13.95 -18.3)" width="25.4" xlink:href="#l"/><use height="36.15" transform="translate(-13.7 -16.7)" width="27.9" xlink:href="#m"/></g><g id="f" fill="#ccc" fill-rule="evenodd"><path d="m-11.3-2.75-1.4-5.35q-.3-1 3.5-8 1.7-2.8 8.85-2.85l.8.05q-9.75 2.95-9.2 10.95.25 4 2.5 7.4l.1.7.5.4-.9-.1q1.8 2.4 2-.05L-4 .05q.25.95 2.4.55 1.55 9.4 4.4 9.9Q1.2 8.55.25 4.15L-.35.3 0 .15q.35 1.45 3.6.9.05 6.55 4.6 11.85 2.25 2.65 4.5 4-1.25 3.45-3.6 1.15L7 14.95q-2.5 3.5-5-3-3.25 3-2.85-.4.3-2.05-2.3-6.3L-5.8 1.4q-3.4 1.05-5.5-4.15" transform="translate(12.7 18.95)"/><path d="M.5-16.5q-3.95 1.8-6.35-.2 2.7 3 5.9 1.2 6.2 1 4.55-1.4-3.2 1.65-4.1.4" transform="translate(12.7 18.95)"/><path d="m6.25-14.5-2.95-.15L1.75-13Q-.5-11.8-3.6-14.15q-3.05 1.8-5.05 1.4 4.4 2.1 4.5-.25Q3-10.1 3.6-13.6q3.3 1.8 2.65-.9" transform="translate(12.7 18.95)"/><path d="M3.7-6.05q-1.7-.3-1.2-3.8Q.35-8.8-.75-11.55q-3.3 4.7-6.5.85-2.05 2.45-3.05 1.6l.2.15q2.7.95 3.05 0 3.5 1.8 5.7-.25Q-.6-6.8.8-7.9q-.4 4.4 3.55 3 4.1 3.4 6.25-.25-3.95 2.2-5-1.25l-1.9.35" transform="translate(12.7 18.95)"/><path d="M3.5-13.2q-.05 4.9 2.4 3.1 2.5 6.85 3.05 1.5-2.15-.35-2.1-2.6-2.2.1-3.45-2.55l.1.55M.9-4.9l1.75-2Q-2-4.25-2.85-7.6q-3.6 1.9-4.9.75-.5.55-2.5.6Q-9-4.45-7.9-5.9q.9 1.25 4.7.05 2 2.45 4.1.95" transform="translate(12.7 18.95)"/><path d="M4.75-1.6Q5-.4 5.75.1q1.5 1 4.05-2.15Q6.3.5 5.05-2.75 3.3-1.2 2.45-3.6q-3.95 2.65-5.3-1-2.2 2.2-3.8.15-1.85 2.85-3.85-.7Q-8.05-.4-6.55-3l3.05.05q1.2 3.05 4.6.8Q2.2.4 4.75-1.6" transform="translate(12.7 18.95)"/><path d="M.1-1.2q-2.8 2.05-4.55 0-1.15 1.65-2.4.75-2.2 3.5-4.35-.25l.85 2Q-9 2.9-6.6.55q2.3.8 2.1-.6Q-3 3.35 0 .2q4.55 1.75 5.3-1.9-3.4 3.3-5.2.5" transform="translate(12.7 18.95)"/></g><g id="g" fill="#908c90" fill-rule="evenodd"><path d="M-7.65-17.95q2.7 3.4 6.3.75 2.4 1.35 5.25-.85-3.25 1.4-5 .1-4.35 2.4-6.55 0" transform="translate(13.95 18.05)"/><path d="M1.95-14.85q.85.65 3.65-.55-2.3.7-4.35-.75.15 1.9-1.9 2.3-2.3.75-4.35-1.55-4.45 3.1-6.35.8 2.15 3.25 6.4-.15.8 2.1 4.15 1.35 1.25-.05 2.1-.8l.65-.65" transform="translate(13.95 18.05)"/><path d="M2.4-14.25q.05 3.2 2.55 2.65.85 2.95 2.95 2.35-2.35-.5-1.95-3-2.3.65-3.55-2M3.85-6.5Q5.2-3.4 8.5-6 5.3-4.4 4.6-7.65-.4-6.9 2.35-11q-4.7 1.65-4-1.6-2.75 2.8-5.15 2.05-1.2-.35-1.8-1.25-2.85 3.15-5.35.75 2.05 3.75 5.55-.05 2.45 3.5 6.25-.5Q-2.45-8.7.9-10-.65-5.75 3.85-6.5" transform="translate(13.95 18.05)"/><path d="M-13.75-7.7q1.65 1.8 5.65.05-.6.25-1.2-.45-3.3 1.15-4.45.4" transform="translate(13.95 18.05)"/><path d="M-9-10.4Q-10-6-7.25-6.85l2.95-1.7q-3.8 1.9-4.65.2L-9-10.4M.65-7.85l.45.45q-4.2 2.25-5.15-.15L-4.1-9.3q.8 3.35 4.75 1.45m3.4 2.75Q3.2-.55 5.85-1.45l2.9-1.8q-3.7 2-4.55.25l-.15-2.1" transform="translate(13.95 18.05)"/><path d="M1.35-6.1q-2.3 5.4 2.5 3l-.2-.65q-3.7 1.2-2.3-2.35" transform="translate(13.95 18.05)"/><path d="m1-4.85-2.85 1q-2.05.2-2.2-1.85l-.1 1.65q.7 2.45 5.25-.4l-.1-.4m-9.6-2.1q.2 3.7 2.35 3.1L-4.2-5.2l.15-.7q-2.6 2.1-3.85.75l-.7-1.8" transform="translate(13.95 18.05)"/><path d="M-8.15-5.2q-2.85 2.6-3.6-1.75l.25 2.5q.85 2.05 3.65-.35l-.3-.4M3.6-2.75q-3.75 3.9-5.15-.4l-.55-.15L-1-1.1Q.85.45 4.15-2.45l-.55-.3" transform="translate(13.95 18.05)"/><path d="M-6.3-3.5v-.1.1l.35 1.95Q-4.8.3-1.1-1.5l-.4-.55Q-5.5.4-6.3-3.5" transform="translate(13.95 18.05)"/><path d="M-6.2-2.05Q-8.8.25-9.5-3.7l.15 2.15Q-8.6.2-5.8-1.7l-.4-.35" transform="translate(13.95 18.05)"/><path d="m-8.35-.75-.4-.5q-2.35 3.75-4.1-.9.5 5.1 4.5 1.4M11 18.05l2.95.05q-4.85-2.2-8-11.05l-2.2-8.5q-.15 7.15 3.5 14 1.85 3.5 3.75 5.5m-3-.35Q3.2 11.7.6 5.5l.2.7q2.65 7.25 4.7 9.8.85 1.4 2.5 1.7m-8.55-4.95.6-.35-4.1-7.95q2.2 7.2 3.5 8.3m-3.5-8.3L-5.45-.7Q-5.7.6-4.05 4.45" transform="translate(13.95 18.05)"/></g></defs></svg>

<?xml version="1.0" encoding="UTF-8" standalone="no"?>
<svg xmlns:xlink="http://www.w3.org/1999/xlink" height="82.0px" width="84.85px" xmlns="http://www.w3.org/2000/svg">
  <g transform="matrix(1.0, 0.0, 0.0, 1.0, 37.4, 42.25)">
    <use height="41.95" transform="matrix(-1.0, 0.0, 0.0, 1.0, 1.6, -14.95)" width="34.15" xlink:href="#sprite0"/>
    <use height="41.95" transform="matrix(1.0, 0.0, 0.0, 1.0, 8.55, -14.95)" width="34.15" xlink:href="#sprite0"/>
    <use height="38.0" transform="matrix(1.0, 0.0, 0.0, 1.0, -11.95, -17.45)" width="32.05" xlink:href="#sprite5"/>
    <use height="38.95" transform="matrix(1.0, 0.0, 0.0, 1.0, -12.45, -17.95)" width="33.05" xlink:href="#sprite6"/>
  </g>
  <defs>
    <g id="sprite0" transform="matrix(1.0, 0.0, 0.0, 1.0, 17.05, 20.95)">
      <use height="41.95" transform="matrix(1.0, 0.0, 0.0, 1.0, -17.05, -20.95)" width="34.15" xlink:href="#sprite1"/>
      <use height="40.15" transform="matrix(1.0, 0.0, 0.0, 1.0, -15.5, -20.05)" width="31.45" xlink:href="#sprite2"/>
      <use height="37.9" transform="matrix(1.0, 0.0, 0.0, 1.0, -13.95, -18.3)" width="25.4" xlink:href="#sprite3"/>
      <use height="36.15" transform="matrix(1.0, 0.0, 0.0, 1.0, -13.7, -16.7)" width="27.9" xlink:href="#sprite4"/>
    </g>
    <g id="sprite1" transform="matrix(1.0, 0.0, 0.0, 1.0, 17.05, 20.95)">
      <use height="41.95" transform="matrix(1.0, 0.0, 0.0, 1.0, -17.05, -20.95)" width="34.15" xlink:href="#shape0"/>
    </g>
    <g id="shape0" transform="matrix(1.0, 0.0, 0.0, 1.0, 17.05, 20.95)">
      <path d="M10.0 -14.6 Q8.85 -16.7 7.3 -18.25 L5.9 -19.4 Q-0.85 -22.55 -7.95 -19.25 -11.5 -17.6 -13.65 -15.35 -15.2 -12.25 -16.4 -6.95 L-17.05 -5.85 Q-12.6 -2.45 -14.75 0.7 -16.05 4.85 -12.6 4.75 L-8.95 3.75 Q-7.7 4.25 -6.25 7.25 L-5.05 10.15 Q-3.4 15.2 -1.6 15.5 L-0.05 14.75 Q1.0 18.35 3.45 18.75 L5.65 18.4 Q8.2 21.2 10.15 21.0 L11.65 20.3 Q16.7 21.15 17.1 19.1 L16.5 16.85 Q10.75 12.35 10.25 6.55 10.1 4.75 10.5 3.0 L10.9 1.65 Q13.55 -7.85 10.0 -14.6" fill="#343a45" fill-rule="evenodd" stroke="none"/>
    </g>
    <g id="sprite2" transform="matrix(1.0, 0.0, 0.0, 1.0, 15.7, 20.05)">
      <use height="40.15" transform="matrix(1.0, 0.0, 0.0, 1.0, -15.7, -20.05)" width="31.45" xlink:href="#shape1"/>
    </g>
    <g id="shape1" transform="matrix(1.0, 0.0, 0.0, 1.0, 15.7, 20.05)">
      <path d="M-7.55 -18.5 Q-10.6 -17.05 -12.35 -15.25 L-15.7 -6.75 Q-11.65 -3.7 -13.55 1.05 -15.9 4.85 -10.3 2.85 L-8.05 3.1 Q-6.4 4.2 -5.0 6.95 -4.25 8.35 -3.85 9.5 -3.35 14.15 -1.5 14.4 L0.25 13.7 Q1.1 17.15 3.6 17.5 L5.9 17.2 Q9.45 21.5 11.05 19.4 15.55 20.2 15.75 18.55 L14.95 16.7 Q11.55 13.6 9.95 11.1 L9.05 9.15 Q8.35 7.05 9.3 1.95 L10.4 -2.65 Q10.7 -10.7 7.65 -15.7 6.7 -17.2 5.55 -18.3 L4.55 -19.05 Q-1.5 -21.25 -7.55 -18.5" fill="#ffffff" fill-rule="evenodd" stroke="none"/>
    </g>
    <g id="sprite3" transform="matrix(1.0, 0.0, 0.0, 1.0, 12.7, 18.95)">
      <use height="37.9" transform="matrix(1.0, 0.0, 0.0, 1.0, -12.7, -18.95)" width="25.4" xlink:href="#shape2"/>
    </g>
    <g id="shape2" transform="matrix(1.0, 0.0, 0.0, 1.0, 12.7, 18.95)">
      <path d="M-11.3 -2.75 L-12.7 -8.1 Q-13.0 -9.1 -9.2 -16.1 -7.5 -18.9 -0.35 -18.95 L0.45 -18.9 Q-9.3 -15.95 -8.75 -7.95 -8.5 -3.95 -6.25 -0.55 L-6.15 0.15 -5.65 0.55 -6.55 0.45 Q-4.75 2.85 -4.55 0.4 L-4.0 0.05 Q-3.75 1.0 -1.6 0.6 -0.05 10.0 2.8 10.5 1.2 8.55 0.25 4.15 L-0.35 0.3 0.0 0.15 Q0.35 1.6 3.6 1.05 3.65 7.6 8.2 12.9 10.45 15.55 12.7 16.9 11.45 20.35 9.1 18.05 L7.0 14.95 Q4.5 18.45 2.0 11.95 -1.25 14.95 -0.85 11.55 -0.55 9.5 -3.15 5.25 L-5.8 1.4 Q-9.2 2.45 -11.3 -2.75" fill="#cccccc" fill-rule="evenodd" stroke="none"/>
      <path d="M0.5 -16.5 Q-3.45 -14.7 -5.85 -16.7 -3.15 -13.7 0.05 -15.5 6.25 -14.5 4.6 -16.9 1.4 -15.25 0.5 -16.5" fill="#cccccc" fill-rule="evenodd" stroke="none"/>
      <path d="M6.25 -14.5 L3.3 -14.65 1.75 -13.0 Q-0.5 -11.8 -3.6 -14.15 -6.65 -12.35 -8.65 -12.75 -4.25 -10.65 -4.15 -13.0 3.0 -10.1 3.6 -13.6 6.9 -11.8 6.25 -14.5" fill="#cccccc" fill-rule="evenodd" stroke="none"/>
      <path d="M3.7 -6.05 Q2.0 -6.35 2.5 -9.85 0.35 -8.8 -0.75 -11.55 -4.05 -6.85 -7.25 -10.7 -9.3 -8.25 -10.3 -9.1 L-10.1 -8.95 Q-7.4 -8.0 -7.05 -8.95 -3.55 -7.15 -1.35 -9.2 -0.6 -6.8 0.8 -7.9 0.4 -3.5 4.35 -4.9 8.45 -1.5 10.6 -5.15 6.65 -2.95 5.6 -6.4 L3.7 -6.05" fill="#cccccc" fill-rule="evenodd" stroke="none"/>
      <path d="M3.5 -13.2 Q3.45 -8.3 5.9 -10.1 8.4 -3.25 8.95 -8.6 6.8 -8.95 6.85 -11.2 4.65 -11.1 3.4 -13.75 L3.5 -13.2" fill="#cccccc" fill-rule="evenodd" stroke="none"/>
      <path d="M0.9 -4.9 L2.65 -6.9 Q-2.0 -4.25 -2.85 -7.6 -6.45 -5.7 -7.75 -6.85 -8.25 -6.3 -10.25 -6.25 -9.0 -4.45 -7.9 -5.9 -7.0 -4.65 -3.2 -5.85 -1.2 -3.4 0.9 -4.9" fill="#cccccc" fill-rule="evenodd" stroke="none"/>
      <path d="M4.75 -1.6 Q5.0 -0.4 5.75 0.1 7.25 1.1 9.8 -2.05 6.3 0.5 5.05 -2.75 3.3 -1.2 2.45 -3.6 -1.5 -0.95 -2.85 -4.6 -5.05 -2.4 -6.65 -4.45 -8.5 -1.6 -10.5 -5.15 -8.05 -0.4 -6.55 -3.0 L-3.5 -2.95 Q-2.3 0.1 1.1 -2.15 2.2 0.4 4.75 -1.6" fill="#cccccc" fill-rule="evenodd" stroke="none"/>
      <path d="M0.1 -1.2 Q-2.7 0.85 -4.45 -1.2 -5.6 0.45 -6.85 -0.45 -9.05 3.05 -11.2 -0.7 L-10.35 1.3 Q-9.0 2.9 -6.6 0.55 -4.3 1.35 -4.5 -0.05 -3.0 3.35 0.0 0.2 4.55 1.95 5.3 -1.7 1.9 1.6 0.1 -1.2" fill="#cccccc" fill-rule="evenodd" stroke="none"/>
    </g>
    <g id="sprite4" transform="matrix(1.0, 0.0, 0.0, 1.0, 13.95, 18.05)">
      <use height="36.15" transform="matrix(1.0, 0.0, 0.0, 1.0, -13.95, -18.05)" width="27.9" xlink:href="#shape3"/>
    </g>
    <g id="shape3" transform="matrix(1.0, 0.0, 0.0, 1.0, 13.95, 18.05)">
      <path d="M-7.65 -17.95 Q-4.95 -14.55 -1.35 -17.2 1.05 -15.85 3.9 -18.05 0.65 -16.65 -1.1 -17.95 -5.45 -15.55 -7.65 -17.95" fill="#908c90" fill-rule="evenodd" stroke="none"/>
      <path d="M1.95 -14.85 Q2.8 -14.2 5.6 -15.4 3.3 -14.7 1.25 -16.15 1.4 -14.25 -0.65 -13.85 -2.95 -13.1 -5.0 -15.4 -9.45 -12.3 -11.35 -14.6 -9.2 -11.35 -4.95 -14.75 -4.15 -12.65 -0.8 -13.4 0.45 -13.45 1.3 -14.2 L1.95 -14.85" fill="#908c90" fill-rule="evenodd" stroke="none"/>
      <path d="M2.4 -14.25 Q2.45 -11.05 4.95 -11.6 5.8 -8.65 7.9 -9.25 5.55 -9.75 5.95 -12.25 3.65 -11.6 2.4 -14.25" fill="#908c90" fill-rule="evenodd" stroke="none"/>
      <path d="M3.85 -6.5 Q5.2 -3.4 8.5 -6.0 5.3 -4.4 4.6 -7.65 -0.4 -6.9 2.35 -11.0 -2.35 -9.35 -1.65 -12.6 -4.4 -9.8 -6.8 -10.55 -8.0 -10.9 -8.6 -11.8 -11.45 -8.65 -13.95 -11.05 -11.9 -7.3 -8.4 -11.1 -5.95 -7.6 -2.15 -11.6 -2.45 -8.7 0.9 -10.0 -0.65 -5.75 3.85 -6.5" fill="#908c90" fill-rule="evenodd" stroke="none"/>
      <path d="M-13.75 -7.7 Q-12.1 -5.9 -8.1 -7.65 -8.7 -7.4 -9.3 -8.1 -12.6 -6.95 -13.75 -7.7" fill="#908c90" fill-rule="evenodd" stroke="none"/>
      <path d="M-9.0 -10.4 Q-10.0 -6.0 -7.25 -6.85 L-4.3 -8.55 Q-8.1 -6.65 -8.95 -8.35 L-9.0 -10.4" fill="#908c90" fill-rule="evenodd" stroke="none"/>
      <path d="M0.65 -7.85 L1.1 -7.4 Q-3.1 -5.15 -4.05 -7.55 L-4.1 -9.3 Q-3.3 -5.95 0.65 -7.85" fill="#908c90" fill-rule="evenodd" stroke="none"/>
      <path d="M4.05 -5.1 Q3.2 -0.55 5.85 -1.45 L8.75 -3.25 Q5.05 -1.25 4.2 -3.0 L4.05 -5.1" fill="#908c90" fill-rule="evenodd" stroke="none"/>
      <path d="M1.35 -6.1 Q-0.95 -0.7 3.85 -3.1 L3.65 -3.75 Q-0.05 -2.55 1.35 -6.1" fill="#908c90" fill-rule="evenodd" stroke="none"/>
      <path d="M1.0 -4.85 L-1.85 -3.85 Q-3.9 -3.65 -4.05 -5.7 L-4.15 -4.05 Q-3.45 -1.6 1.1 -4.45 L1.0 -4.85" fill="#908c90" fill-rule="evenodd" stroke="none"/>
      <path d="M-8.6 -6.95 Q-8.4 -3.25 -6.25 -3.85 L-4.2 -5.2 -4.05 -5.9 Q-6.65 -3.8 -7.9 -5.15 L-8.6 -6.95" fill="#908c90" fill-rule="evenodd" stroke="none"/>
      <path d="M-8.15 -5.2 Q-11.0 -2.6 -11.75 -6.95 L-11.5 -4.45 Q-10.65 -2.4 -7.85 -4.8 L-8.15 -5.2" fill="#908c90" fill-rule="evenodd" stroke="none"/>
      <path d="M3.6 -2.75 Q-0.15 1.15 -1.55 -3.15 L-2.1 -3.3 -1.0 -1.1 Q0.85 0.45 4.15 -2.45 L3.6 -2.75" fill="#908c90" fill-rule="evenodd" stroke="none"/>
      <path d="M-6.3 -3.5 L-6.3 -3.6 -6.3 -3.5 -5.95 -1.55 Q-4.8 0.3 -1.1 -1.5 L-1.5 -2.05 Q-5.5 0.4 -6.3 -3.5" fill="#908c90" fill-rule="evenodd" stroke="none"/>
      <path d="M-6.2 -2.05 Q-8.8 0.25 -9.5 -3.7 L-9.35 -1.55 Q-8.6 0.2 -5.8 -1.7 L-6.2 -2.05" fill="#908c90" fill-rule="evenodd" stroke="none"/>
      <path d="M-8.35 -0.75 L-8.75 -1.25 Q-11.1 2.5 -12.85 -2.15 -12.35 2.95 -8.35 -0.75" fill="#908c90" fill-rule="evenodd" stroke="none"/>
      <path d="M11.0 18.05 L13.95 18.1 Q9.1 15.9 5.95 7.05 L3.75 -1.45 Q3.6 5.7 7.25 12.55 9.1 16.05 11.0 18.05" fill="#908c90" fill-rule="evenodd" stroke="none"/>
      <path d="M8.0 17.7 Q3.2 11.7 0.6 5.5 L0.8 6.2 Q3.45 13.45 5.5 16.0 6.35 17.4 8.0 17.7" fill="#908c90" fill-rule="evenodd" stroke="none"/>
      <path d="M-0.55 12.75 L0.05 12.4 -4.05 4.45 Q-1.85 11.65 -0.55 12.75 M-4.05 4.45 L-5.45 -0.7 Q-5.7 0.6 -4.05 4.45" fill="#908c90" fill-rule="evenodd" stroke="none"/>
    </g>
    <g id="sprite5" transform="matrix(1.0, 0.0, 0.0, 1.0, -0.05, 0.0)">
      <use height="38.0" transform="matrix(1.0, 0.0, 0.0, 1.0, 0.05, 0.0)" width="32.05" xlink:href="#shape4"/>
    </g>
    <g id="shape4" transform="matrix(1.0, 0.0, 0.0, 1.0, -0.05, 0.0)">
      <path d="M27.35 7.4 Q29.5 11.55 30.9 16.15 32.35 20.85 32.05 25.65 31.7 30.6 27.85 33.75 24.05 36.95 19.1 37.8 L16.5 38.0 Q12.9 38.0 9.45 36.85 4.8 35.25 2.35 31.35 -0.2 27.4 0.05 23.0 0.25 18.6 2.05 13.7 3.85 8.75 7.0 5.05 10.1 1.3 14.7 0.1 L16.5 0.0 Q18.4 0.05 20.2 0.8 24.95 2.85 27.35 7.4" fill="#ffffff" fill-rule="evenodd" stroke="none"/>
    </g>
    <g id="sprite6" transform="matrix(1.0, 0.0, 0.0, 1.0, 0.45, 0.5)">
      <use height="38.95" transform="matrix(1.0, 0.0, 0.0, 1.0, -0.45, -0.5)" width="33.05" xlink:href="#shape5"/>
    </g>
    <g id="shape5" transform="matrix(1.0, 0.0, 0.0, 1.0, 0.45, 0.5)">
      <path d="M27.35 7.4 Q24.95 2.85 20.2 0.8 17.55 -0.3 14.7 0.1 10.1 1.3 7.0 5.05 3.85 8.75 2.05 13.7 0.25 18.6 0.05 23.0 -0.2 27.4 2.35 31.35 4.8 35.25 9.45 36.85 14.1 38.4 19.1 37.8 24.05 36.95 27.85 33.75 31.7 30.6 32.05 25.65 32.35 20.85 30.9 16.15 29.5 11.55 27.35 7.4 Z" fill="none" stroke="#1c0a1b" stroke-linecap="round" stroke-linejoin="round" stroke-width="1.0"/>
    </g>
  </defs>
</svg>
